packages/client/src/assets/game/mapCard/start.svg

<svg width="605" height="604" xmlns="http://www.w3.org/2000/svg">

 <g>
  <title>background</title>
  <rect fill="none" id="canvas_background" height="402" width="582" y="-1" x="-1"/>
 </g>
 <g>
  <title>Layer 1</title>
  <rect id="svg_1" fill="white" height="600" width="600" y="1" x="2"/>
  <path transform="rotate(-180 306.51531982421875,311.38519287109375) " id="svg_2" fill="#292929" d="m414.749,201.667c16.564,16.563 -4.073,39.915 -21.45,29.597l-11.744,11.743c13.712,10.726 32.516,8.485 44.734,-3.733c13.577,-13.577 13.984,-35.163 0,-49.147c-13.983,-13.984 -35.366,-13.373 -48.943,0.204c-12.354,12.354 -14.323,30.75 -3.665,44.938l11.743,-11.744c-10.725,-17.378 12.694,-38.489 29.325,-21.858zm-87.306,39.924l36.657,36.657l-12.762,12.761l10.861,10.862l37.199,-37.2l-10.861,-10.861l-12.829,12.83l-36.657,-36.657l-11.608,11.608zm-45.083,45.083l-13.101,13.101l67.815,28.307l8.281,-8.281l-29.053,-67.068l-12.423,12.422l4.345,9.64l-16.224,16.224l-9.64,-4.345zm39.644,18.192l-13.984,-6.652l-1.086,-0.543l7.874,-7.874l0.679,1.493l6.517,13.576zm-8.325,45.525l-47.517,-47.518l-11.608,11.608l14.119,14.119l-6.584,6.585c-22.198,22.197 11.132,55.663 33.398,33.398l18.192,-18.192zm-34.077,-10.862l11.201,11.201l-6.585,6.585c-7.195,7.195 -18.396,-4.006 -11.2,-11.201l6.584,-6.585zm-76.654,26.557l36.657,36.657l-12.762,12.761l10.861,10.862l37.199,-37.2l-10.861,-10.861l-12.829,12.83l-36.657,-36.657l-11.608,11.608zm29.579,65.456l-34.484,-34.484l-11.336,11.336l34.484,34.485l11.336,-11.337zm-41.408,-30.275c3.394,-3.394 3.666,-8.553 0.068,-12.151c-2.987,-2.987 -8.757,-3.326 -12.151,0.068c-3.665,3.665 -3.258,9.367 -0.271,12.354c3.597,3.598 8.689,3.394 12.354,-0.271z"/>
  <rect id="svg_3" stroke-width="5" stroke="#292929" height="600" width="600" y="12" x="-643"/>
 </g>
</svg>

<svg width="605" height="604" viewBox="0 0 605 604" fill="none" xmlns="http://www.w3.org/2000/svg">
<rect x="2" y="1" width="600" height="600" fill="white"/>
<path d="M414.749 201.667C431.313 218.23 410.676 241.582 393.299 231.264L381.555 243.007C395.267 253.733 414.071 251.492 426.289 239.274C439.866 225.697 440.273 204.111 426.289 190.127C412.306 176.143 390.923 176.754 377.346 190.331C364.992 202.685 363.023 221.081 373.681 235.269L385.424 223.525C374.699 206.147 398.118 185.036 414.749 201.667ZM327.443 241.591L364.1 278.248L351.338 291.009L362.199 301.871L399.398 264.671L388.537 253.81L375.708 266.64L339.051 229.983L327.443 241.591ZM282.36 286.674L269.259 299.775L337.074 328.082L345.355 319.801L316.302 252.733L303.879 265.155L308.224 274.795L292 291.019L282.36 286.674ZM322.004 304.866L308.02 298.214L306.934 297.671L314.808 289.797L315.487 291.29L322.004 304.866ZM313.679 350.391L266.162 302.873L254.554 314.481L268.673 328.6L262.089 335.185C239.891 357.382 273.221 390.848 295.487 368.583L313.679 350.391ZM279.602 339.529L290.803 350.73L284.218 357.315C277.023 364.51 265.822 353.309 273.018 346.114L279.602 339.529ZM202.948 366.086L239.605 402.743L226.843 415.504L237.704 426.366L274.903 389.166L264.042 378.305L251.213 391.135L214.556 354.478L202.948 366.086ZM232.527 431.542L198.043 397.058L186.707 408.394L221.191 442.879L232.527 431.542ZM191.119 401.267C194.513 397.873 194.785 392.714 191.187 389.116C188.2 386.129 182.43 385.79 179.036 389.184C175.371 392.849 175.778 398.551 178.765 401.538C182.362 405.136 187.454 404.932 191.119 401.267Z" fill="#292929"/>
<rect x="2" y="1" width="600" height="600" stroke="#292929" stroke-width="5"/>
</svg>
